X:1052
T:The Rosy Morn.
M:C
L:1/8
Q:1/2=104
I: :: || DC
P:ABA % Aird uses a da capo
Z:Jack Campin * www.campin.me.uk * 2009
K:G
P:A
d3e d2g2| d2   c2  c2B2|G3B B2    A2  |A2 Ac c2B2 |
d3e d2g2| d2   c2  c2B2|G3B A2 (3(ABc)|B2TA2 G2z2:|
P:B
B3c B2B2|(AG) (AB) G2G2|D3D E3      A |F2 F2 G2z2 |
B3c B2B2|(AG) (AB) G2G2|D3D E3      A |G2 F2 G2z2||

